assets/Person cartwheeling/Light/Flat/person_cartwheeling_flat_light.svg

<svg width="32" height="32" viewBox="0 0 32 32" fill="none" xmlns="http://www.w3.org/2000/svg">
<path d="M13.5 28.99L14 28.6V22L14.91 18L16 18.68V29C16 29.49 15.57 30 15.08 30H14.54H13.95H13.49C13.22 30 13 29.75 13 29.48C13.01 29.21 13.23 28.99 13.5 28.99ZM26.8073 25.2036C26.8605 25.2614 26.9652 25.3753 27.2997 25.7371C27.317 25.7496 27.3338 25.7638 27.35 25.78L27.96 26.43C28.07 26.56 28.06 26.75 27.94 26.86C27.81 26.97 27.62 26.96 27.51 26.84L27.49 26.82C27.4888 26.812 27.4875 26.8039 27.4861 26.7959L27.4842 26.794C27.4932 26.888 27.4585 26.9836 27.38 27.0501C27.2503 27.1598 27.0611 27.1402 26.9609 27.0211C26.9572 27.0175 26.9536 27.0138 26.9501 27.01L26.9435 27.0022L26.84 26.8901L26.8379 26.8791L26.8301 26.87C26.8401 26.97 26.8001 27.07 26.7201 27.14C26.5901 27.24 26.4101 27.22 26.3001 27.1L26.0301 26.8C25.9723 26.7421 25.8959 26.7029 25.8098 26.7091L25.8201 26.8001C25.8501 27.0001 25.7001 27.1901 25.5001 27.2101C25.2901 27.2301 25.1101 27.0801 25.0901 26.8801L25.0036 26.1978C24.9362 26.1231 24.8901 26.07 24.8901 26.07L18.8701 19.75L19.8101 18.72L21.3601 19.45L26.6126 24.9941L26.6129 24.9944C26.7131 25.1018 26.7415 25.1321 26.7697 25.1627L26.8073 25.2035L26.8073 25.2036Z" fill="#FFD7C2"/>
<path d="M21 14H15V17.7353C14.6781 18.5069 13.95 20.4264 13.95 21.9999H15.95L17.0172 20H18.9674L20.9199 21.9L22.4199 20.6C21.8677 19.037 21.0966 18.0785 21 17.9702V14Z" fill="#FF6723"/>
<path d="M14.9518 14.05L4.2718 14.02C4.0518 14.02 3.9218 13.76 4.0518 13.58L4.4418 13.04C4.8718 12.45 5.3818 12.44 6.1118 12.36L16.0018 11C17.9118 10.65 18.9018 10.67 19.5618 10.03L26.7718 3.41002C27.3718 2.85002 28.34 2 28.8 2H29.5C29.71 2 29.8218 2.24002 29.6918 2.41002L21.0518 14.05H14.9518Z" fill="#FFD7C2"/>
<path d="M14.9517 14.0499H13.0017V11.4099L17.0317 10.7399C18.0117 10.5199 19.1817 10.2799 19.6517 9.84988L21.3517 8.37988L23.6717 10.5199L21.0517 14.0499H14.9517Z" fill="#9B9B9B"/>
<path d="M30.8601 2.89018C29.7301 3.52018 28.0901 4.44018 28.0901 4.44018L26.4001 3.72018L26.3601 2.55018C26.3501 2.28018 26.73 2.00006 27 2.00006C27 2.00006 30.17 1.94006 30.83 1.98006C31.05 1.99006 31.0901 2.76018 30.8601 2.89018ZM2.46988 14.69C3.72988 14.42 5.56988 14.03 5.56988 14.03L6.35988 12.37L5.61988 11.46C5.43988 11.25 5.12988 11.22 4.92988 11.4C4.92988 11.4 2.50988 13.45 2.03988 13.91C1.88988 14.07 2.20988 14.74 2.46988 14.69Z" fill="#533566"/>
<path d="M16.8601 20.41C16.8601 20.37 17.3901 19.23 17.7101 18.85C17.8301 18.71 18.0501 18.7 18.1701 18.85C18.5001 19.23 19.0501 20.41 19.0501 20.41C19.0501 21.06 18.6001 20.97 17.9401 20.97C17.2701 20.96 16.8601 21.07 16.8601 20.41Z" fill="#F4C6AD"/>
<path d="M16.6701 22.5301C16.6701 22.9001 16.3701 23.2001 16.0001 23.2001C15.63 23.2001 15.3301 22.9001 15.3301 22.5301C15.3301 22.1601 15.63 21.8601 16.0001 21.8601C16.3701 21.8601 16.6701 22.1601 16.6701 22.5301ZM20.61 22.5301C20.61 22.9001 20.3101 23.2001 19.94 23.2001C19.57 23.2001 19.27 22.9001 19.27 22.5301C19.27 22.1601 19.57 21.8601 19.94 21.8601C20.3101 21.8601 20.61 22.1601 20.61 22.5301Z" fill="#F4C6AD"/>
<path d="M17.51 25.4899H18.41C19.42 25.4899 20.19 24.6399 20.07 23.5899L19.92 21.2599C19.81 20.4699 19.14 19.8799 18.34 19.8799H17.96H17.58C16.78 19.8799 16.11 20.4699 16 21.2599L15.85 23.5899C15.71 24.5999 16.49 25.4899 17.51 25.4899Z" fill="#FFD7C2"/>
<path d="M19.96 21.86C20.1 21.86 20.23 21.91 20.33 21.98V21.6C20.33 21.24 20.11 20.92 19.78 20.79C19.85 20.94 19.9 21.1 19.92 21.26L19.96 21.86ZM15.4501 24.6601C15.5701 24.8701 15.7601 25.0201 15.9701 25.0901C16.2001 25.1701 16.4001 25.3201 16.5301 25.5301C16.7001 25.8101 17.0001 25.9901 17.3501 25.9901C17.4801 25.9901 17.6101 25.9601 17.7301 25.9101C17.8901 25.8401 18.0601 25.8401 18.2201 25.9101C18.3401 25.9601 18.4601 25.9901 18.6001 25.9901C18.9401 25.9901 19.2401 25.8101 19.4101 25.5401C19.5401 25.3301 19.7401 25.1701 19.9801 25.0901C20.2001 25.0101 20.3901 24.8601 20.5101 24.6301C20.6801 24.3101 20.6501 23.9201 20.4501 23.6401C20.3801 23.5401 20.3401 23.4101 20.3401 23.2801V23.0701C20.2601 23.1301 20.1601 23.1701 20.0601 23.1901H20.0391L20.0601 23.5301C20.0601 24.2901 19.4501 24.9001 18.6901 24.9001H18.1701C18.0601 24.9001 17.9601 24.8301 17.9201 24.7301C17.7601 24.3701 17.4001 24.1401 17.0101 24.1401H16.4401C16.1301 24.1301 15.8801 23.8701 15.8701 23.5601L15.8901 23.1901H15.8801H15.8701C15.7801 23.1701 15.7001 23.1301 15.6201 23.0801V23.2901C15.6201 23.4201 15.5801 23.5401 15.5101 23.6401C15.2901 23.9301 15.2601 24.3301 15.4501 24.6601ZM16.1301 20.8101C16.0601 20.9501 16.0101 21.1101 15.9901 21.2701L15.9601 21.8601C15.8301 21.8701 15.7101 21.9201 15.6101 21.9901V21.6101C15.6101 21.2601 15.8201 20.9501 16.1301 20.8101Z" fill="#212121"/>
<path d="M17.9601 21.28C18.1801 21.28 18.3801 21.33 18.5601 21.42C18.6201 21.45 18.6801 21.38 18.6501 21.33C18.5101 21.11 18.2501 20.96 17.9701 20.96C17.6901 20.96 17.4301 21.11 17.2901 21.33C17.2501 21.39 17.3201 21.45 17.3801 21.42C17.5401 21.33 17.7401 21.28 17.9601 21.28Z" fill="#990838"/>
<path d="M18.1199 22.6399L18.3299 21.9499C18.3699 21.8099 18.2699 21.6699 18.1199 21.6699H17.7999C17.6499 21.6699 17.5499 21.8099 17.5899 21.9499L17.7999 22.6399C17.8599 22.7899 18.0699 22.7899 18.1199 22.6399Z" fill="#E5AF93"/>
<path d="M16.4199 22.66C16.4899 22.91 16.7099 23.09 16.9799 23.09C17.2599 23.09 17.4899 22.89 17.5399 22.63C17.5599 22.57 17.5099 22.52 17.4499 22.52H16.5299C16.4599 22.52 16.3999 22.59 16.4199 22.66ZM19.51 22.66C19.44 22.91 19.22 23.09 18.95 23.09C18.67 23.09 18.43 22.89 18.39 22.63C18.37 22.57 18.42 22.52 18.48 22.52H19.4C19.47 22.52 19.53 22.59 19.51 22.66Z" fill="white"/>
<path d="M16.6899 22.61C16.6899 22.82 16.8599 22.98 17.0599 22.98C17.2699 22.98 17.4299 22.81 17.4199 22.61C17.4199 22.57 17.4199 22.54 17.4099 22.51H16.6999C16.6899 22.54 16.6899 22.58 16.6899 22.61ZM19.2299 22.61C19.2299 22.82 19.0599 22.98 18.8599 22.98C18.6599 22.98 18.4899 22.81 18.4999 22.61C18.4999 22.57 18.4999 22.54 18.5099 22.51H19.2199C19.2299 22.54 19.2299 22.58 19.2299 22.61Z" fill="#7D4533"/>
<path d="M17.0601 22.82C17.1801 22.82 17.2701 22.73 17.2701 22.61C17.2701 22.57 17.2701 22.54 17.2401 22.51H16.8701C16.8601 22.54 16.8501 22.57 16.8501 22.61C16.8501 22.73 16.9401 22.82 17.0601 22.82ZM18.8599 22.82C18.7399 22.82 18.6499 22.73 18.6499 22.61C18.6499 22.57 18.6599 22.54 18.6799 22.51H19.0499L19.0499 22.51C19.0599 22.54 19.0699 22.57 19.0699 22.61C19.0699 22.73 18.9799 22.82 18.8599 22.82Z" fill="black"/>
<path d="M17.2501 22.7499C17.2501 22.7886 17.2188 22.8199 17.1801 22.8199C17.1414 22.8199 17.1101 22.7886 17.1101 22.7499C17.1101 22.7113 17.1414 22.6799 17.1801 22.6799C17.2188 22.6799 17.2501 22.7113 17.2501 22.7499ZM19.0599 22.7499C19.0599 22.7886 19.0286 22.8199 18.9899 22.8199C18.9513 22.8199 18.9199 22.7886 18.9199 22.7499C18.9199 22.7113 18.9513 22.6799 18.9899 22.6799C19.0286 22.6799 19.0599 22.7113 19.0599 22.7499Z" fill="white"/>
</svg>

<svg xmlns="http://www.w3.org/2000/svg" width="32" height="32" fill="none"><path fill="#FFD7C2" d="m13.5 28.99.5-.39V22l.91-4 1.09.68V29c0 .49-.43 1-.92 1H13.49c-.27 0-.49-.25-.49-.52.01-.27.23-.49.5-.49Zm13.307-3.786.493.533a.413.413 0 0 1 .05.043l.61.65c.11.13.1.32-.02.43-.13.11-.32.1-.43-.02l-.02-.02a1.006 1.006 0 0 0-.004-.024l-.002-.002a.296.296 0 0 1-.104.256.299.299 0 0 1-.43-.04l-.006-.008-.104-.112-.002-.01-.008-.01c.01.1-.03.2-.11.27a.31.31 0 0 1-.42-.04l-.27-.3a.283.283 0 0 0-.22-.09l.01.09c.03.2-.12.39-.32.41a.372.372 0 0 1-.41-.33l-.086-.682-.114-.128-6.02-6.32.94-1.03 1.55.73 5.253 5.544.157.169.037.04Z"/><path fill="#FF6723" d="M21 14h-6v3.735c-.322.772-1.05 2.691-1.05 4.265h2l1.067-2h1.95l1.953 1.9 1.5-1.3c-.552-1.563-1.323-2.522-1.42-2.63V14Z"/><path fill="#FFD7C2" d="m14.952 14.05-10.68-.03c-.22 0-.35-.26-.22-.44l.39-.54c.43-.59.94-.6 1.67-.68l9.89-1.36c1.91-.35 2.9-.33 3.56-.97l7.21-6.62C27.372 2.85 28.34 2 28.8 2h.7c.21 0 .322.24.192.41l-8.64 11.64h-6.1Z"/><path fill="#9B9B9B" d="M14.952 14.05h-1.95v-2.64l4.03-.67c.98-.22 2.15-.46 2.62-.89l1.7-1.47 2.32 2.14-2.62 3.53h-6.1Z"/><path fill="#533566" d="M30.86 2.89c-1.13.63-2.77 1.55-2.77 1.55l-1.69-.72-.04-1.17c-.01-.27.37-.55.64-.55 0 0 3.17-.06 3.83-.02.22.01.26.78.03.91ZM2.47 14.69c1.26-.27 3.1-.66 3.1-.66l.79-1.66-.74-.91a.483.483 0 0 0-.69-.06s-2.42 2.05-2.89 2.51c-.15.16.17.83.43.78Z"/><path fill="#F4C6AD" d="M16.86 20.41c0-.04.53-1.18.85-1.56.12-.14.34-.15.46 0 .33.38.88 1.56.88 1.56 0 .65-.45.56-1.11.56-.67-.01-1.08.1-1.08-.56ZM16.67 22.53a.67.67 0 1 1-1.34 0 .67.67 0 0 1 1.34 0Zm3.94 0a.67.67 0 1 1-1.34 0 .67.67 0 0 1 1.34 0Z"/><path fill="#FFD7C2" d="M17.51 25.49h.9c1.01 0 1.78-.85 1.66-1.9l-.15-2.33c-.11-.79-.78-1.38-1.58-1.38h-.76c-.8 0-1.47.59-1.58 1.38l-.15 2.33c-.14 1.01.64 1.9 1.66 1.9Z"/><path fill="#212121" d="M19.96 21.86c.14 0 .27.05.37.12v-.38a.87.87 0 0 0-.55-.81c.07.15.12.31.14.47l.04.6Zm-4.51 2.8c.12.21.31.36.52.43.23.08.43.23.56.44a.949.949 0 0 0 1.2.38c.16-.07.33-.07.49 0a.958.958 0 0 0 1.19-.37c.13-.21.33-.37.57-.45.22-.08.41-.23.53-.46.17-.32.14-.71-.06-.99a.638.638 0 0 1-.11-.36v-.21c-.08.06-.18.1-.28.12h-.02l.02.34c0 .76-.61 1.37-1.37 1.37h-.52c-.11 0-.21-.07-.25-.17a.998.998 0 0 0-.91-.59h-.57a.6.6 0 0 1-.57-.58l.02-.37h-.02a.796.796 0 0 1-.25-.11v.21c0 .13-.04.25-.11.35-.22.29-.25.69-.06 1.02Zm.68-3.85c-.07.14-.12.3-.14.46l-.03.59a.71.71 0 0 0-.35.13v-.38c0-.35.21-.66.52-.8Z"/><path fill="#990838" d="M17.96 21.28c.22 0 .42.05.6.14.06.03.12-.04.09-.09a.816.816 0 0 0-.68-.37c-.28 0-.54.15-.68.37-.04.06.03.12.09.09.16-.09.36-.14.58-.14Z"/><path fill="#E5AF93" d="m18.12 22.64.21-.69a.217.217 0 0 0-.21-.28h-.32c-.15 0-.25.14-.21.28l.21.69c.06.15.27.15.32 0Z"/><path fill="#fff" d="M16.42 22.66c.07.25.29.43.56.43.28 0 .51-.2.56-.46.02-.06-.03-.11-.09-.11h-.92c-.07 0-.13.07-.11.14Zm3.09 0a.58.58 0 0 1-.56.43c-.28 0-.52-.2-.56-.46-.02-.06.03-.11.09-.11h.92c.07 0 .13.07.11.14Z"/><path fill="#7D4533" d="M16.69 22.61c0 .21.17.37.37.37.21 0 .37-.17.36-.37 0-.04 0-.07-.01-.1h-.71c-.01.03-.01.07-.01.1Zm2.54 0c0 .21-.17.37-.37.37a.36.36 0 0 1-.36-.37c0-.04 0-.07.01-.1h.71c.01.03.01.07.01.1Z"/><path fill="#000" d="M17.06 22.82c.12 0 .21-.09.21-.21 0-.04 0-.07-.03-.1h-.37c-.01.03-.02.06-.02.1 0 .12.09.21.21.21Zm1.8 0a.205.205 0 0 1-.18-.31h.37c.01.03.02.06.02.1 0 .12-.09.21-.21.21Z"/><path fill="#fff" d="M17.25 22.75a.07.07 0 1 1-.14 0 .07.07 0 0 1 .14 0Zm1.81 0a.07.07 0 1 1-.14 0 .07.07 0 0 1 .14 0Z"/></svg>
